X:1
T: Mr. Masson of the Manse of Botriphnie
C:William Marshall
R:Strathspey
Q: 128
K:Bb
M:4/4
L:1/16
|:B2|B,B3 B3c d3c BF3|GB3 FB3 D3C B,3D|Cc3 c3d e3d cB3|GB3 c3d e3c df3|
dB3 B3c d3c BF3|GB3 FB3 D3C B,D3|E3G EC3 D3F DB,3|C3D E3F G4 G2g2|
f3B d3f B3f df3|b3B df3 B3c d3B|g3c e3g c3g eg3|c3d e3f g4 g2ab|
f3B d3f B3f df3|b3B df3 B3c d3B|G3B F3B E3B D3B|C3D E3F G4 G2:|
